X:1
T:Title
%%score ( 1 2 ) ( 3 4 )
L:1/8
Q:1/4=98
M:4/4
K:D
V:1 treble nm="Midi_74"
V:2 treble 
V:3 bass nm="Midi_74"
V:4 bass 
V:1
"^Pax Dei  (10 10. 10 10)""^Saviour, again to Thy dear Name we raise""^John Bacchus Dykes\n(1823-76)""^John Ellerton\n(1826-93)" D4 F2 A2 | %1
w: |
w: |
w: |
w: |
 A3 G F2 D2 | F4 (E2 D2) | (D4 C4) || D4 F2 A2 | d2 c2 A2 B2 | c6 B2 | A8 || A4 B2 F2 | %9
w: ||||||||
w: ||||||||
w: ||||||||
w: ||||||||
 G4 (A2 E2) | F2 A2 d2 d2 | c8 || c4 d2 D2 | D2 E2 F2 (GE) | D6 C2 | D8 |] %16
w: ||||* * * Thy *|||
w: ||||* * * up\- *|||
w: ||||* * * a\- *|||
w: ||||* * * e\- *|||
V:2
 A,4 D2 D2 | D3 D D2 D2 | (D2 C2) B,4 | A,8 || A,4 D2 E2 | F2 ^E2 C2 F2 | (E2 A2) ^G4 | E8 || %8
w: ||Name * *||||||
w: ||home\- * *||||||
w: ||proach\- * *||||||
w: ||earth\- * *||||||
 (F2 E2) ^D2 D2 | (E2 =D2) C4 | D2 E2 F2 (ED) | E8 || E4 D2 D2 | D2 D2 D2 B,2 | (A,2 B,2 A,2) A,2 | %15
w: We * stand to|bless * *|ere our wor- ship *|cease,||||
w: Guard * Thou the|lips * *|sin, the hearts from *|shame,||||
w: From * harm and|dan\- * *|keep Thy child- ren *|free,||||
w: Then, * when Thy|voice * *|bid our con- flict *|cease,||||
 A,8 |] %16
w: |
w: |
w: |
w: |
V:3
 F,4 A,2 =C2 | B,3 B, A,2 B,2 | A,4 (G,2 F,2) | (F,4 E,2 G,2) || F,4 A,2 A,2 | A,2 ^G,2 A,2 A,2 | %6
w: Sa- viour, a-|gain to Thy dear|* we *|raise * *|With one ac-|cord our part- ing|
w: ~~Grant us Thy|peace up- on our|* ward *|way; * *|With Thee be-|gan, with Thee shall|
w: ~~Grant us Thy|peace through this ap\-|* ing *|night; * *|Turn Thou for|us its dark- ness|
w: ~~Grant us Thy|peace through- out our|* ly *|life, * *|Our balm in|sor- row, and our|
 (A,2 B,C) D4 | C8 || (D2 =C2) B,2 A,2 | B,4 (A,2 G,2) | A,2 A,2 A,2 ^G,2 | A,8 || %12
w: hymn * * of|praise;||* Thee *|||
w: end * * the|day;||* from *|||
w: in\- * * to|light;||* ger *|||
w: stay * * in|strife;||* shall *|||
 (C3 B,) A,2 A,2 | B,2 B,2 A,2 G,2 | (F,2 G,2 F,2) (E,G,) | F,8 |] %16
w: Then, * low- ly|kneel- ing, wait *|word * * of *|peace.|
w: That * in this|house, have called *|on * * Thy *|Name.|
w: For * dark and|light are both *|like * * to *|Thee.|
w: Call * us, O|Lord, to Thine *|ter\- * * nal *|peace.|
V:4
 D,4 D,2 D,2 | D,3 D, D,2 B,,2 | F,,4 G,,4 | A,,8 || D,4 D,2 C,2 | B,,2 C,2 F,2 D,2 | E,4 E,4 | %7
 (A,4 =G,4) || F,4 B,,2 F,2 | E,4 (A,,2 E,2) | D,2 C,2 B,,2 B,,2 | A,,8 || (A,2 G,2) F,2 F,2 | %13
 G,2 G,2 F,2 (E,G,,) | A,,6 A,,2 | D,8 |] %16

